X:573
T:Dark Haired Lass, The
O:ireland
R:reel
H:Sometimes played in Ador
D:Noel Hill & Tony McMahon: \'I gCnoc na Gra\'i
Z:id:hn-reel-310
M:C|
K:Amix
cA~A2 cdec|d2gd BG~G2|cA~A2 cdec|dfec ~A3B:|
cdef g2eg|f2df gfed|(3Bcd ef geag|fdec ~A3B|
cdef g2eg|fddc defg|afge fdec|dfec ~A3B||
